X:1
T:Messe chorale n° 4
T:Charles Gounod
T:1. Prélude
T:Messe chorale n° 4
C:Charles Gounod
Z:1. Prélude
%%score { ( 1 3 4 ) | ( 2 5 6 ) } 7
L:1/8
Q:1/4=120
M:4/2
K:Bb
V:1 treble nm="P1"
V:3 treble 
V:4 treble 
V:2 bass 
V:5 bass 
V:6 bass 
V:7 bass nm="P2"
V:1
 F8 D8 | E4 D4 C8 | F8 G8- | G8- G4 !fermata!z4 | [Bg]8 =e8 | f4 =e4 [Fd]8 | %6
 [Gdg]8 [A!courtesy!_e]8 | d8- d4 !fermata!z4 | x16 | x16 | x16[K:treble] | x16 | x16 | x16 | x16 | %15
 x16 | x16 | x16 | x16[K:bass] | x16 |] %20
V:2
 F,8 D,8 | E,4 D,4 C,8 | F,8 G,8- | G,8- G,4 !fermata!z4 | D8 =E8 | F4 =E4 D8- | %6
 D8 [C!courtesy!_E]8 | ^F,8- F,4 !fermata!z4 | z2 B,,2 C,2 D,2 A,,2 C,2 D,2 E,2- | %9
 E,2 ^F,4 x2 =F,4 E,4 | [=B,,F,]2 [D,_A,]2 [E,G,]2 [D,F,]2 _D,2 C,2 _B,,4- | %11
 B,,2 _D,2 C,2 B,,2 ^F,2 !courtesy!=A,4 G,2 | ^F,2 _G,2 =F,2 E,2 =B,4 C4 | %13
 [D,=B,]2[K:treble] F6 =E2 G4 F2 | =E4 _E2 _D2 E2 ^F6 | G2 E2 D2 F2 E2[K:bass] x6 | %16
 [=E,A,]2 [D,G,]2 [_E,A,]2 [=E,G,]2 D,2 C,2 B,,2 A,,2 | x2 G,4 =B,,2 C,6 D,2 | %18
 C,2 !courtesy!_B,,2 A,,2 E,2 D,2 C,2 D,2 ([A,,E,]2 | [G,,B,,D,]8-) [G,,B,,D,]4 !fermata!z4 |] %20
V:3
 x16 | x16 | x16 | x16 | x8 c8- | c8 x8 | x8 a8- | a8- !fermata!a4 x4 | x16 | %9
 A,4 B,2 A,2 _A,2 G,4 A,2- | A,2[K:treble] =B,6 _B,2 C2 _D4- | D2 =E6 _E4 !courtesy!=D4 | %12
 E2 A6 _A2 G4 A2- | A2 d6 _d4 c4 | _d2 g6 ^f2 a2 =d4- | d2 x14 | x16 | G4 F4 E4 E4- | %18
 E4[K:bass] ^F,4 G,6 F,2 | z16 |] %20
V:4
 x16 | x16 | x16 | x16 | G16 | A8 x8 | G8 A8- | A8- A4 x4 | z2 G,2 A,2 B,2 ^F,4 G,4 | %9
 A,2 C2 D2 E2 B,4 C4 | D2[K:treble] F2 G2 _A2 =E4 F4 | G2 B2 c2 _d2 !courtesy!=A4 B4 | %12
 c2 e2 f2 _g2 !courtesy!=d4 e4 | f2 _a2 !courtesy!_b2 _c'2 g4 a4 | %14
 [_db]2 _d'2 e'2 =e'2 c'2 _e'2 =d'2 c'2 | %15
 b2 [c^f]2 [Bg]2 [_Ad]2 [Ge]2 [!courtesy!=F=B]2 [Ec]2 [D^G]2 | %16
 [^CA]2 [=B,^E]2 [=C^F]2 ([_B,-^C]2 [B,D]2) [A,_E]2 [B,=E]2 [=CF]2 | B,4 =B,2 D2- D2 G,2 C2 _B,2 | %18
 A,2 G,2[K:bass] D2 C2- C2 A,2 B,2 C2 | [G,B,]8- [G,B,]4 !fermata!z4 |] %20
V:5
 x16 | x16 | x16 | x16 | z8 C8- | C8 B,8- | B,8 A,8- | A,8- A,4 x4 | x8 A,,4 B,,4 | %9
 C,2 E,2 D,2 C,2 D,4 C,4 | x8 G,6 F,2 | =E,2 G,6 C,4 B,,4 | A,,2 C6 F,4 E,4 | %13
 x2[K:treble] _C2 _B,2 _A,2 B,4 A,4 | G,2 B,6 !courtesy!=A,2 C2 B,2 A,2 | %15
 G,2 A,2 B,2 =B,2 C2[K:bass] [_A,D]2 [G,C]2 [F,B,]2 | x8 ^F,4 G,2 D,2- | D,2 x14 | x16 | x16 |] %20
V:6
 x16 | x16 | x16 | x16 | G,16 | F,16 | G,16 | D8- D4 x4 | x16 | x16 | x12 B,,4- | B,,2 x14 | x16 | %13
 x2[K:treble] x14 | x16 | x10[K:bass] x6 | x16 | G,,16- | G,,16 | x16 |] %20
V:7
"^Grand jeu" z16 | z16 | z16 | z16 | x8 C,8 | A,,8 B,,4 A,,4 | G,,8 C,8 | D,8- D,4 !fermata!z4 | %8
 G,,16-"^Jeux de fonds ; 4, 8 et 16 pieds" | G,,16- | G,,16- | G,,16- | G,,16- | G,,16- | G,,16- | %15
 G,,16- | G,,16- | G,,16- | G,,16- | G,,8- G,,4 !fermata!z4 |] %20

